X: 20618
T: John Pott's
R: reel
M: 4/4
K: Gmajor
|:Bc|d2ge d2ef|gfge dBGB|cBcd edcB|AGFG A2Bc|
dBdg edBd|gfge dBGB|cBcd eaag|fdef g2:|
|:dB|A2BG AGFD|A2BG AGFD|GABd g2 fg|eAcA eAcA|
A2BG AGFD|A2BG AGFD|GABd gfge|dcBA G2:|

